X: 4757
T: Boys Of Bluehill, The
R: hornpipe
M: 4/4
K: Dmajor
K: Cmaj
|:cA|"C"AG EG C2 EG|AG (3ABc"G" d2 cd|"C"eg fe df ed|ce dc "F"A2 cA|
"C"AG EG C2 EG|AG (3ABc"G" d2 cd|"C"eg fe "F"df ed|"G"c2 e2 "C"c2:|
|:ef|"C"ge ce g2 f2|"F"de fg a2 gf|"Am"eg fe df ed|"G"ce dc A2 cA|
"F"AG EG C2 EG|AG (3ABc "G"d2 cd|"C"eg fe "F"df ed|"G"c2 e2 "C"c2:|

